X: 40949
T: Trip To Clare
R: jig
M: 6/8
K: Gmajor
|:gfd cBc|dcA GFD|DFA cBA|1 GFA D3:|2 GFA G3||
|:ggd a2 c'|bag fdc|Bcd cAG|1 FGA DFA:|2 FGA G3||

